rospo-light/16x16/actions/find-location.svg

<svg height="16" viewBox="0 0 16 16" width="16" xmlns="http://www.w3.org/2000/svg"><path d="m7 1.0976562v2c-1.9529.3996301-3.50665 1.9533501-3.90625 3.90625h-2.09375v2h2.09375c.39963 1.9528998 1.95335 3.5066498 3.90625 3.9062498v2.09375h2v-2.09375c1.9529-.39963 3.50665-1.95335 3.90625-3.9062498h2.09375v-2h-2.09375c-.39963-1.9528999-1.95335-3.50665-3.90625-3.90625v-2zm1 4.90625c1.1046 0 2 .89543 2 2 0 1.1045701-.89543 1.9999998-2 1.9999998s-2-.8954298-2-1.9999998.89543-2 2-2z" fill="#5c616c"/></svg>

<?xml version="1.0" encoding="UTF-8" standalone="no"?>
<svg xmlns="http://www.w3.org/2000/svg" width="22" height="22" viewBox="0 0 22 22">
 <defs>
  <style type="text/css" id="current-color-scheme">
   .ColorScheme-Text { color:#5c616c; } .ColorScheme-Highlight { color:#5294e2; }
  </style>
 </defs>
 <path style="fill:currentColor;opacity:1" class="ColorScheme-Text" transform="translate(3 3)" d="M 7 1.0976562 L 7 3.0976562 C 5.0471 3.4972863 3.49335 5.0510063 3.09375 7.0039062 L 1 7.0039062 L 1 9.0039062 L 3.09375 9.0039062 C 3.49338 10.956806 5.0471 12.510556 7 12.910156 L 7 15.003906 L 9 15.003906 L 9 12.910156 C 10.9529 12.510526 12.50665 10.956806 12.90625 9.0039062 L 15 9.0039062 L 15 7.0039062 L 12.90625 7.0039062 C 12.50662 5.0510063 10.9529 3.4972562 9 3.0976562 L 9 1.0976562 L 7 1.0976562 z M 8 6.0039062 C 9.1046 6.0039062 10 6.8993362 10 8.0039062 C 10 9.1084763 9.10457 10.003906 8 10.003906 C 6.89543 10.003906 6 9.1084762 6 8.0039062 C 6 6.8993362 6.89543 6.0039062 8 6.0039062 z"/>
</svg>
